images/service-1/responsibilities-5.svg

<svg width="75" height="75" viewBox="0 0 75 75" fill="none" xmlns="http://www.w3.org/2000/svg">
<path d="M59.9311 4.8065C54.6348 4.72868 48.7067 7.55766 45.2277 11.0367C43.9048 12.3596 43.0808 13.6368 42.6093 14.9048C40.9385 13.6596 39.0754 12.6663 36.7362 12.41L28.7848 11.5265L25.3379 11.0367C23.5251 10.7757 21.6666 11.3937 20.3666 12.6892L1.92327 31.1279C0.224964 32.8308 -0.264843 35.4538 0.714771 37.651L4.78887 46.82C5.68609 48.8388 6.97698 50.6012 8.64324 52.0706L12.4793 55.3848L12.0673 55.7922C10.5201 57.3395 9.66863 59.3994 9.66863 61.5921C9.66863 63.7848 10.5201 65.8447 12.0673 67.3965C13.6695 68.9941 15.766 69.7952 17.8718 69.7952C19.9729 69.7952 22.0694 68.9941 23.6716 67.3965L24.9305 66.1331L28.2035 68.9621C29.2243 69.8547 30.5015 70.2942 31.7695 70.2942C33.1656 70.2942 34.5572 69.7677 35.6101 68.7149C36.6263 67.6941 37.1894 66.3391 37.1894 64.8926C37.1894 64.6911 37.1756 64.4851 37.1528 64.2837C39.1303 65.007 41.4191 64.5584 42.9755 63.0066C44.1016 61.8805 44.6372 60.3882 44.5868 58.9096C46.7246 60.1455 49.4758 59.816 51.261 58.0307C52.6572 56.6391 53.1516 54.6753 52.7396 52.8808C54.5432 53.2928 56.507 52.7847 57.894 51.4023L58.1733 51.123C60.1737 49.118 60.2881 45.8771 58.4342 43.7393L53.2798 37.7884L55.0605 36.0031C60.0135 37.5595 63.964 38.7039 68.4272 34.2361C72.6935 29.9698 75.994 21.9955 74.1218 16.0446C74.0027 15.6555 73.6823 15.358 73.284 15.2618C72.8858 15.1611 72.4647 15.2801 72.1763 15.5685L64.8612 22.8836C64.5682 23.1766 64.1334 23.291 63.7351 23.1857L62.4534 22.8424C59.629 22.0871 57.4088 19.8623 56.6535 17.0425L56.3056 15.7608C56.2003 15.358 56.3147 14.9231 56.6123 14.6301L63.9365 7.30131C64.2249 7.01292 64.3439 6.59178 64.2478 6.1981C64.1517 5.79985 63.8541 5.47941 63.465 5.35582C62.3481 4.99876 61.1579 4.82481 59.9311 4.8065ZM59.8258 7.16398C60.1279 7.16398 60.4255 7.17771 60.7184 7.2006L54.9506 12.9684C54.0625 13.8519 53.7192 15.1565 54.0397 16.365L54.383 17.6468C55.358 21.2768 58.2145 24.1333 61.84 25.1037L63.1217 25.4516C64.3348 25.7767 65.6348 25.4242 66.5229 24.5361L72.2678 18.7912C72.6294 23.4787 69.9881 29.3609 66.7701 32.579C63.227 36.1175 60.485 35.2569 55.4999 33.6868L55.0834 33.5541C54.6668 33.4259 54.209 33.5357 53.9023 33.8424L51.7371 36.0122L44.0421 27.1316L45.6168 25.5569C45.9281 25.2502 46.038 24.7925 45.9052 24.3759L45.777 23.9593C44.2023 18.9743 43.3371 16.2323 46.8802 12.6892C49.9106 9.66337 55.2939 7.15483 59.8258 7.16398ZM24.1889 13.3346C24.4544 13.3072 24.7291 13.3163 25.0037 13.3529L28.4873 13.8519C28.4919 13.8519 28.4964 13.8473 28.501 13.8473C28.5102 13.8519 28.5148 13.8565 28.5239 13.8565L36.4753 14.7354C38.6908 14.9826 40.3891 16.0675 42.0829 17.482C41.9913 19.6609 42.6688 21.904 43.4562 24.4034L42.4994 25.3555L39.4782 21.8674C39.0571 21.3775 38.3155 21.3272 37.8257 21.7529C37.3359 22.1741 37.2855 22.9156 37.7067 23.4009L56.6626 45.2728C57.7155 46.4859 57.6514 48.3261 56.5116 49.4613L56.2323 49.7452C55.0971 50.8804 53.2889 50.9949 52.0209 50.0061L47.6035 46.5683C47.1137 46.1883 46.4133 46.2524 46.0059 46.7193C45.5939 47.1817 45.6168 47.8866 46.0517 48.3215L49.6039 51.8738C50.8445 53.1143 50.8445 55.133 49.6039 56.3782C48.4687 57.5088 46.6605 57.6233 45.3925 56.6345L40.9751 53.1967C40.4853 52.8168 39.7849 52.8808 39.3729 53.3478C38.9655 53.8101 38.9884 54.5151 39.4233 54.9499L41.3138 56.8405C42.5589 58.0856 42.5589 60.1044 41.3138 61.3449C40.1832 62.4801 38.3704 62.59 37.107 61.6104L32.685 58.1726C32.1998 57.7881 31.4994 57.8522 31.0874 58.3191C30.68 58.7814 30.6983 59.4864 31.1377 59.9258L33.9484 62.7319C34.5252 63.3087 34.8456 64.0777 34.8456 64.8926C34.8456 65.712 34.5252 66.481 33.9484 67.0578C32.8086 68.1976 30.9592 68.2617 29.7416 67.1951L10.1813 50.3036C8.78057 49.0677 7.69109 47.5799 6.9312 45.8725L2.85711 36.6989C2.27117 35.3805 2.56414 33.8104 3.58037 32.7896L22.0237 14.3509C22.605 13.7649 23.3787 13.4125 24.1889 13.3346ZM49.3659 20.636C49.0683 20.636 48.7708 20.7504 48.5419 20.9793C48.0796 21.4371 48.0796 22.1786 48.5419 22.6364L56.8229 30.9219C57.0517 31.1508 57.3539 31.2652 57.656 31.2652C57.9535 31.2652 58.2557 31.1508 58.4845 30.9219C58.9423 30.4642 58.9423 29.7226 58.4845 29.2648L50.1944 20.9793C49.9656 20.7504 49.668 20.636 49.3659 20.636ZM41.9089 38.0356C41.6068 38.0356 41.3093 38.15 41.0804 38.3789C40.6226 38.8412 40.6226 39.5782 41.0804 40.036L42.7375 41.6931C42.9664 41.922 43.2685 42.0364 43.566 42.0364C43.8682 42.0364 44.1703 41.922 44.3992 41.6931C44.8569 41.2353 44.8569 40.4938 44.3992 40.036L42.7375 38.3789C42.5086 38.15 42.211 38.0356 41.9089 38.0356ZM37.7662 42.1829C37.464 42.1829 37.1665 42.2928 36.9376 42.5216C36.4798 42.9794 36.4798 43.7256 36.9376 44.1833L38.5993 45.8359C38.8236 46.0647 39.1257 46.1792 39.4233 46.1792C39.7254 46.1792 40.0275 46.0647 40.2518 45.8359C40.7142 45.3781 40.7142 44.6365 40.2518 44.1833L38.5947 42.5216C38.3658 42.2928 38.0683 42.1829 37.7662 42.1829ZM33.6234 46.3257C33.3259 46.3257 33.0237 46.4355 32.7948 46.669C32.3371 47.1222 32.3371 47.8638 32.7948 48.3215L34.452 49.9832C34.6808 50.2075 34.9784 50.3219 35.2805 50.3219C35.5826 50.3219 35.8802 50.2075 36.1091 49.9832C36.5668 49.5254 36.5668 48.7839 36.1091 48.3215L34.452 46.669C34.2231 46.4355 33.9209 46.3257 33.6234 46.3257ZM29.4806 50.4638C29.1831 50.4638 28.881 50.5783 28.6521 50.8117C28.1943 51.2695 28.1943 52.0065 28.6521 52.4643L30.3092 54.126C30.5381 54.3503 30.8356 54.4693 31.1377 54.4693C31.4399 54.4693 31.7374 54.3503 31.9663 54.126C32.4241 53.6636 32.4241 52.9266 31.9663 52.4643L30.3092 50.8117C30.0803 50.5783 29.7782 50.4638 29.4806 50.4638ZM25.3379 54.6066C25.0358 54.6066 24.7382 54.7211 24.5047 54.9499C24.047 55.4123 24.047 56.1493 24.5047 56.6116L26.1664 58.2641C26.3907 58.493 26.6929 58.612 26.9904 58.612C27.2925 58.612 27.5947 58.493 27.819 58.2641C28.2813 57.8064 28.2813 57.0694 27.819 56.6116L26.1664 54.9499C25.933 54.7211 25.6354 54.6066 25.3379 54.6066ZM14.2554 56.9137L23.1498 64.5996L22.0099 65.7348C19.7257 68.0191 16.0087 68.0191 13.7244 65.7348C12.6166 64.6316 12.0078 63.1576 12.0078 61.5921C12.0078 60.0265 12.6166 58.5571 13.7244 57.4493L14.2554 56.9137Z" fill="#E4B564"/>
</svg>

<svg width="75" height="75" fill="none" xmlns="http://www.w3.org/2000/svg"><path d="M59.931 4.806c-5.296-.077-11.224 2.752-14.703 6.23-1.323 1.324-2.147 2.6-2.619 3.869-1.67-1.245-3.534-2.239-5.873-2.495l-7.951-.883-3.447-.49a5.89 5.89 0 00-4.971 1.652L1.923 31.128C.225 32.83-.265 35.454.715 37.65l4.074 9.169a15.141 15.141 0 003.854 5.25l3.836 3.315-.412.407a8.147 8.147 0 00-2.398 5.8 8.19 8.19 0 008.203 8.203 8.187 8.187 0 005.8-2.398l1.258-1.264 3.273 2.83a5.407 5.407 0 003.567 1.331 5.412 5.412 0 003.84-1.58 5.381 5.381 0 001.543-4.43 5.555 5.555 0 005.822-1.277 5.507 5.507 0 001.612-4.097 5.537 5.537 0 006.674-.88 5.52 5.52 0 001.479-5.15 5.554 5.554 0 005.154-1.478l.28-.279c2-2.005 2.114-5.246.26-7.384l-5.154-5.95 1.78-1.786c4.953 1.556 8.904 2.7 13.367-1.767 4.266-4.266 7.567-12.24 5.695-18.191a1.16 1.16 0 00-.838-.783c-.398-.1-.82.018-1.108.306l-7.315 7.316a1.177 1.177 0 01-1.126.302l-1.282-.344a8.22 8.22 0 01-5.8-5.8l-.347-1.281a1.171 1.171 0 01.306-1.13l7.325-7.33a1.173 1.173 0 00-.472-1.945c-1.117-.357-2.307-.531-3.534-.55zm-.105 2.358c.302 0 .6.014.892.037l-5.767 5.767a3.528 3.528 0 00-.911 3.397l.343 1.282a10.577 10.577 0 007.457 7.457l1.282.348a3.528 3.528 0 003.4-.916l5.746-5.745c.361 4.688-2.28 10.57-5.498 13.788-3.543 3.538-6.285 2.678-11.27 1.108l-.417-.133a1.183 1.183 0 00-1.18.288l-2.166 2.17-7.695-8.88 1.575-1.575c.311-.307.421-.764.288-1.181l-.128-.417c-1.575-4.985-2.44-7.727 1.103-11.27 3.03-3.026 8.414-5.534 12.946-5.525zm-35.637 6.17c.265-.027.54-.018.815.019l3.483.499c.005 0 .01-.005.014-.005.01.005.014.01.023.01l7.951.878c2.216.248 3.914 1.332 5.608 2.747-.092 2.179.586 4.422 1.373 6.921l-.957.953-3.02-3.489a1.168 1.168 0 00-1.653-.114 1.168 1.168 0 00-.12 1.648l18.957 21.872a3.08 3.08 0 01-.151 4.188l-.28.284a3.188 3.188 0 01-4.211.261l-4.418-3.438a1.168 1.168 0 00-1.597.151 1.17 1.17 0 00.046 1.602l3.552 3.553a3.191 3.191 0 010 4.504 3.192 3.192 0 01-4.212.257l-4.417-3.438a1.174 1.174 0 00-1.552 1.753l1.89 1.89a3.183 3.183 0 010 4.505 3.192 3.192 0 01-4.206.265l-4.422-3.437a1.164 1.164 0 00-1.598.146 1.176 1.176 0 00.05 1.607l2.811 2.806a3.04 3.04 0 01.898 2.16c0 .82-.32 1.589-.898 2.166a3.089 3.089 0 01-4.206.137l-19.56-16.891a12.801 12.801 0 01-3.25-4.431l-4.075-9.174a3.539 3.539 0 01.723-3.91l18.444-18.438a3.527 3.527 0 012.165-1.016zm25.177 7.302a1.16 1.16 0 00-.824.343 1.163 1.163 0 000 1.657l8.28 8.286a1.174 1.174 0 001.662-1.657l-8.29-8.286a1.164 1.164 0 00-.828-.343zm-7.457 17.4a1.171 1.171 0 00-.829 2l1.657 1.657a1.175 1.175 0 001.662 0 1.17 1.17 0 000-1.657l-1.662-1.657a1.164 1.164 0 00-.828-.343zm-4.143 4.147c-.302 0-.6.11-.828.339a1.177 1.177 0 000 1.661l1.661 1.653c.225.229.527.343.824.343.302 0 .605-.114.829-.343.462-.458.462-1.2 0-1.653l-1.657-1.661a1.16 1.16 0 00-.829-.34zm-4.143 4.143c-.297 0-.6.11-.828.343a1.166 1.166 0 000 1.653l1.657 1.661a1.179 1.179 0 001.657 0c.458-.458.458-1.2 0-1.661l-1.657-1.653a1.153 1.153 0 00-.829-.343zm-4.142 4.138c-.298 0-.6.114-.829.348a1.166 1.166 0 000 1.652l1.657 1.662c.23.224.527.343.829.343.302 0 .6-.119.828-.343.458-.462.458-1.2 0-1.662l-1.657-1.652a1.158 1.158 0 00-.828-.348zm-4.143 4.143c-.302 0-.6.114-.833.343a1.177 1.177 0 000 1.662l1.661 1.652a1.159 1.159 0 001.653 0 1.158 1.158 0 000-1.652l-1.653-1.662a1.18 1.18 0 00-.828-.343zm-11.083 2.307L23.15 64.6l-1.14 1.135a5.865 5.865 0 01-8.286 0 5.809 5.809 0 01-1.716-4.143 5.82 5.82 0 011.716-4.143l.531-.535z" fill="#E4B564"/></svg>
